brandFactory_export/1.Light/Valoracion_1Light.svg

<?xml version="1.0" encoding="UTF-8"?>
<svg width="24px" height="24px" viewBox="0 0 24 24" version="1.1" xmlns="http://www.w3.org/2000/svg" xmlns:xlink="http://www.w3.org/1999/xlink">
    <title>1.Light/Valoracion_1Light</title>
    <g id="Symbols" stroke="none" stroke-width="1" fill="none" fill-rule="evenodd">
        <g id="1.Light/Valoracion_1Light" fill="#5CB615" fill-rule="nonzero">
            <path d="M22.1176471,19.789916 C22.4033613,19.789916 22.6386555,19.5647059 22.6386555,19.2857143 L22.6386555,7.85378151 L0.98487395,7.85378151 L0.98487395,19.2890756 C0.98487395,19.5680672 1.22016807,19.7932773 1.50588235,19.7932773 L22.1176471,19.789916 Z M1.50588235,3.98487395 C1.22352941,3.98151261 0.988235294,4.20672269 0.98487395,4.48907563 L0.98487395,6.89915966 L22.6386555,6.89915966 L22.6386555,4.48907563 C22.6352941,4.20672269 22.4,3.98151261 22.1176471,3.98487395 L1.50588235,3.98487395 Z M22.1176471,3.02689076 C22.9478992,3.02689076 23.6235294,3.68235294 23.6235294,4.48571429 L23.6235294,19.2857143 C23.6235294,20.0890756 22.9478992,20.7445507 22.1176471,20.7445507 L1.50588235,20.7445507 C0.675630252,20.7478992 0,20.092437 0,19.2890756 L0,4.48907563 C0,3.68235294 0.675630252,3.0302521 1.50588235,3.0302521 C1.50588235,3.02689076 22.1176471,3.02689076 22.1176471,3.02689076 Z M5.02857143,6.17647059 C4.65546218,6.18319328 4.34957983,5.88403361 4.34285714,5.51092437 C4.34285714,5.14453782 4.6487395,4.84537815 5.02857143,4.84537815 C5.40840336,4.84537815 5.71428571,5.14117647 5.71428571,5.51092437 C5.71428571,5.87731092 5.40840336,6.17647059 5.02857143,6.17647059 Z M7.08571429,6.17647059 C6.71260504,6.18319328 6.40672269,5.88739496 6.4,5.51428571 L6.4,5.51092437 C6.4,5.14453782 6.70588235,4.84537815 7.08571429,4.84537815 C7.46554622,4.84537815 7.77142857,5.14117647 7.77142857,5.51092437 C7.77142857,5.87731092 7.46554622,6.17647059 7.08571429,6.17647059 L7.08571429,6.17647059 Z M2.97478992,6.17647059 C2.60168067,6.18319328 2.29579832,5.88403361 2.28907563,5.51092437 C2.28907563,5.14453782 2.59495798,4.84537815 2.97478992,4.84537815 C3.35462185,4.84537815 3.6605042,5.14117647 3.6605042,5.51092437 C3.6605042,5.87731092 3.35462185,6.17647059 2.97478992,6.17647059 L2.97478992,6.17647059 Z M13.0588235,13.507563 L13.7613445,12.8151261 L12.8168067,12.6773109 C12.5579832,12.6369748 12.3327731,12.4756303 12.2117647,12.2436975 L11.8117647,11.4235294 L11.4117647,12.2369748 C11.2907563,12.4756303 11.0655462,12.6403361 10.8,12.6773109 L9.85882353,12.8151261 L10.5579832,13.5042017 C10.7361345,13.6789916 10.8201681,13.9478992 10.7798319,14.189916 L10.6218487,15.1277311 L11.4252101,14.7008403 C11.6605042,14.5764706 11.9394958,14.5731092 12.1781513,14.6941176 L12.994958,15.1277311 L12.8336134,14.189916 C12.8,13.9411765 12.8806723,13.6890756 13.0588235,13.507563 Z M14.1579832,12.102521 C14.389916,12.1361345 14.5848739,12.297479 14.6588235,12.5193277 C14.7394958,12.7478992 14.6789916,13 14.507563,13.1714286 L13.6201681,14.0420168 C13.6168067,14.0453782 13.6134454,14.0554622 13.6134454,14.0655462 L13.8218487,15.2957983 C13.8655462,15.5378151 13.7613445,15.7798319 13.5596639,15.9176471 C13.3680672,16.0521008 13.1159664,16.0655462 12.9109244,15.9546218 L11.8184874,15.3731092 C11.8151261,15.3731092 11.8151261,15.3697479 11.8117647,15.3697479 C11.8084034,15.3697479 11.8084034,15.3697479 11.8084034,15.3731092 L10.712605,15.9546218 C10.6218487,16.0016807 10.5210084,16.0285714 10.4168067,16.0285714 C10.2890756,16.0285714 10.1647059,15.9915966 10.0638655,15.9176471 C9.86218487,15.7798319 9.75798319,15.5378151 9.80168067,15.2957983 L10.010084,14.0655462 C10.010084,14.0554622 10.0067227,14.0453782 10.0033613,14.0420168 L9.11932773,13.1714286 C8.94789916,13.0033613 8.88739496,12.7478992 8.96806723,12.5193277 C9.04201681,12.297479 9.23697479,12.1361345 9.46890756,12.102521 L10.692437,11.9243697 C10.6991597,11.9243697 10.702521,11.9176471 10.7058824,11.9142857 L11.2537815,10.794958 C11.3579832,10.5798319 11.5764706,10.4420168 11.8184874,10.4420168 C12.0605042,10.4420168 12.2756303,10.5764706 12.3831933,10.794958 L12.9310924,11.9142857 C12.9344538,11.9176471 12.9378151,11.9243697 12.9445378,11.9243697 L14.1579832,12.102521 L14.1579832,12.102521 Z M19.9563025,13.507563 L20.6588235,12.8151261 L19.7142857,12.6773109 C19.4554622,12.6369748 19.2302521,12.4756303 19.1092437,12.2436975 L18.7092437,11.4235294 L18.312605,12.2369748 C18.1915966,12.4756303 17.9663866,12.6403361 17.7008403,12.6773109 L16.7596639,12.8151261 L17.4588235,13.5042017 C17.6369748,13.6789916 17.7243697,13.9478992 17.6806723,14.189916 L17.5226891,15.1277311 L18.3260504,14.7008403 C18.5613445,14.5764706 18.8403361,14.5731092 19.0789916,14.6941176 L19.8957983,15.1277311 L19.7378151,14.189916 C19.7008403,13.9411765 19.7815126,13.6890756 19.9563025,13.507563 L19.9563025,13.507563 Z M21.0554622,12.102521 C21.287395,12.1361345 21.4823529,12.297479 21.5596639,12.5193277 C21.6403361,12.7478992 21.5798319,13 21.4084034,13.1714286 L20.5210084,14.0420168 C20.5176471,14.0453782 20.5142857,14.0554622 20.5142857,14.0655462 L20.7226891,15.2957983 C20.7663866,15.5378151 20.6621849,15.7798319 20.4605042,15.9176471 C20.2689076,16.0521008 20.0168067,16.0655462 19.8117647,15.9546218 L18.7159664,15.3731092 L18.7092437,15.3697479 C18.7058824,15.3697479 18.7058824,15.3697479 18.7058824,15.3731092 L17.6134454,15.9546218 C17.5226891,16.0016807 17.4218487,16.0285714 17.3176471,16.0285714 C17.189916,16.0285714 17.0655462,15.9915966 16.9647059,15.9176471 C16.7630252,15.7798319 16.6588235,15.5378151 16.702521,15.2957983 L16.9109244,14.0655462 C16.9109244,14.0554622 16.907563,14.0453782 16.9042017,14.0420168 L16.0201681,13.1714286 C15.8487395,13.0033613 15.7882353,12.7478992 15.8689076,12.5193277 C15.9428571,12.297479 16.1378151,12.1361345 16.3697479,12.102521 L17.5932773,11.9243697 C17.6,11.9243697 17.6033613,11.9176471 17.6067227,11.9142857 L18.1546218,10.794958 C18.2588235,10.5798319 18.4773109,10.4420168 18.7193277,10.4420168 C18.9613445,10.4420168 19.1764706,10.5764706 19.2840336,10.794958 L19.8319328,11.9142857 C19.8352941,11.9176471 19.8386555,11.9243697 19.8453782,11.9243697 L21.0554622,12.102521 L21.0554622,12.102521 Z M6.16134454,13.507563 L6.86386555,12.8151261 L5.91932773,12.6773109 C5.6605042,12.6369748 5.43529412,12.4756303 5.31428571,12.2436975 L4.91428571,11.4235294 L4.51428571,12.2369748 C4.39327731,12.4756303 4.16806723,12.6403361 3.90252101,12.6773109 L2.96134454,12.8151261 L3.6605042,13.5042017 C3.83865546,13.6789916 3.92605042,13.9478992 3.88235294,14.189916 L3.7210084,15.1277311 L4.52436975,14.7008403 C4.75966387,14.5764706 5.03865546,14.5731092 5.27731092,14.6941176 L6.09411765,15.1277311 L5.93277311,14.189916 C5.90252101,13.9411765 5.98319328,13.6890756 6.16134454,13.507563 Z M7.2605042,12.102521 C7.49243697,12.1361345 7.68739496,12.297479 7.76134454,12.5193277 C7.84201681,12.7478992 7.78151261,13 7.61008403,13.1714286 L6.72268908,14.0453782 C6.71596639,14.0487395 6.71260504,14.0588235 6.71596639,14.0689076 L6.92436975,15.2991597 C6.96806723,15.5411765 6.86386555,15.7831933 6.66218487,15.9210084 C6.47058824,16.0554622 6.21848739,16.0689076 6.01344538,15.9579832 L4.9210084,15.3764706 C4.91764706,15.3764706 4.91764706,15.3731092 4.91428571,15.3731092 C4.91092437,15.3731092 4.91092437,15.3731092 4.91092437,15.3764706 L3.81512605,15.9579832 C3.72436975,16.005042 3.62352941,16.0319328 3.51932773,16.0319328 C3.39159664,16.0319328 3.26722689,15.994958 3.16638655,15.9210084 C2.96470588,15.7831933 2.8605042,15.5411765 2.90084034,15.2991597 L3.1092437,14.0689076 C3.1092437,14.0588235 3.10588235,14.0487395 3.10252101,14.0453782 L2.21848739,13.1747899 C2.04705882,13.0067227 1.98655462,12.7512605 2.06722689,12.5226891 C2.14117647,12.3008403 2.33613445,12.1394958 2.56806723,12.1058824 L3.79159664,11.9277311 C3.79831933,11.9277311 3.80168067,11.9210084 3.80504202,11.9176471 L4.35294118,10.7983193 C4.45714286,10.5831933 4.67563025,10.4453782 4.91764706,10.4453782 C5.15966387,10.4453782 5.37478992,10.5798319 5.48235294,10.7983193 L6.0302521,11.9176471 C6.03361345,11.9210084 6.03697479,11.9277311 6.04369748,11.9277311 C6.03697479,11.9243697 7.2605042,12.102521 7.2605042,12.102521 Z" id="Valoracion_1Light"></path>
        </g>
    </g>
</svg>

<svg width="24" height="24" viewBox="0 0 24 24" xmlns="http://www.w3.org/2000/svg"><path d="M22.118 19.79a.514.514 0 00.52-.504V7.854H.986v11.435c0 .28.235.504.52.504l20.613-.003zM1.506 3.985a.514.514 0 00-.521.504V6.9h21.654V4.49a.514.514 0 00-.521-.504H1.506zm20.612-.958c.83 0 1.506.655 1.506 1.459v14.8c0 .803-.676 1.459-1.506 1.459H1.506C.676 20.748 0 20.092 0 19.289V4.49C0 3.682.676 3.03 1.506 3.03c0-.003 20.612-.003 20.612-.003zm-17.09 3.15a.676.676 0 01-.685-.666c0-.366.306-.666.686-.666.38 0 .685.296.685.666a.676.676 0 01-.685.665zm2.058 0a.673.673 0 01-.686-.663v-.003c0-.366.306-.666.686-.666.38 0 .685.296.685.666a.676.676 0 01-.685.665zm-4.111 0a.676.676 0 01-.686-.666c0-.366.306-.666.686-.666.38 0 .686.296.686.666a.676.676 0 01-.686.665zm10.084 7.33l.702-.692-.944-.138a.827.827 0 01-.605-.433l-.4-.82-.4.813a.81.81 0 01-.612.44l-.941.138.699.69a.8.8 0 01.222.685l-.158.938.803-.427a.816.816 0 01.753-.007l.817.434-.161-.938a.816.816 0 01.225-.682zm1.099-1.404a.622.622 0 01.5.416c.081.229.021.481-.15.652l-.888.871c-.003.003-.007.013-.007.024l.209 1.23a.62.62 0 01-.262.622.619.619 0 01-.65.037l-1.092-.582c-.003 0-.003-.003-.006-.003-.004 0-.004 0-.004.003l-1.095.582a.643.643 0 01-.296.074.595.595 0 01-.353-.111.62.62 0 01-.262-.622l.208-1.23c0-.01-.003-.02-.007-.024l-.884-.87a.625.625 0 01-.15-.653.622.622 0 01.5-.416l1.223-.179c.007 0 .01-.006.014-.01l.548-1.119a.627.627 0 011.13 0l.547 1.12c.003.003.007.01.014.01l1.213.178zm5.798 1.405l.703-.693-.945-.138a.827.827 0 01-.605-.433l-.4-.82-.396.813a.81.81 0 01-.612.44l-.941.138.699.69a.79.79 0 01.222.685l-.158.938.803-.427a.816.816 0 01.753-.007l.817.434-.158-.938a.812.812 0 01.218-.682zm1.1-1.405a.631.631 0 01.352 1.068l-.887.871c-.003.003-.007.013-.007.024l.209 1.23a.62.62 0 01-.262.622.619.619 0 01-.65.037l-1.095-.582-.007-.003c-.003 0-.003 0-.003.003l-1.093.582a.643.643 0 01-.295.074.595.595 0 01-.353-.111.62.62 0 01-.262-.622l.208-1.23c0-.01-.003-.02-.007-.024l-.884-.87a.625.625 0 01-.151-.653.622.622 0 01.5-.416l1.224-.179c.007 0 .01-.006.014-.01l.548-1.119a.627.627 0 011.129 0l.548 1.12c.003.003.007.01.013.01l1.21.178zM6.16 13.508l.703-.693-.945-.138a.827.827 0 01-.605-.433l-.4-.82-.4.813a.81.81 0 01-.611.44l-.942.138.7.69a.79.79 0 01.221.685l-.161.938.803-.427a.816.816 0 01.753-.007l.817.434-.161-.938a.83.83 0 01.228-.682zm1.1-1.405a.622.622 0 01.5.416c.081.229.02.481-.15.652l-.888.874c-.007.004-.01.014-.007.024l.208 1.23a.62.62 0 01-.262.622.619.619 0 01-.649.037l-1.092-.582c-.003 0-.003-.003-.007-.003-.003 0-.003 0-.003.003l-1.096.582a.643.643 0 01-.296.074.595.595 0 01-.353-.111.628.628 0 01-.265-.622l.208-1.23c0-.01-.003-.02-.006-.024l-.885-.87a.625.625 0 01-.15-.652.622.622 0 01.5-.417l1.224-.178c.006 0 .01-.007.013-.01l.548-1.12a.627.627 0 011.13 0l.547 1.12c.004.003.007.01.014.01-.007-.004 1.217.175 1.217.175z" fill="#5CB615" fill-rule="nonzero"/></svg>
